!!!COM: Palestrina, Giovanni Perluigi da
!!!OPR: Missa Spem In Alium
!!!OTL: Agnus I
**kern	**kern	**kern	**kern
*Ibass	*Itenor	*Icalto	*Icant
!Bassus	!Tenor	!Altus	!Cantus
*clefF4	*clefGv2	*clefG2	*clefG2
*k[]	*k[]	*k[]	*k[]
*A:aeo	*A:aeo	*A:aeo	*A:aeo
*M4/2	*M4/2	*M4/2	*M4/2
=1	=1	=1	=1
0r	0r	0a	0r
=2	=2	=2	=2
0r	0r	1d	1r
.	.	[1a	[1ee
=3	=3	=3	=3
0r	0r	2a]	1ee]
.	.	2g	.
.	.	2.cc	1a
.	.	4b	.
=4	=4	=4	=4
0r	0r	2a	1.ee
.	.	2g	.
.	.	1f	.
.	.	.	2dd
=5	=5	=5	=5
0r	0r	2.e	2.gg
.	.	4f	4ff
.	.	4g	2ee
.	.	4a	.
.	.	4b	2dd
.	.	4g	.
=6	=6	=6	=6
0r	0r	4a	2cc
.	.	4b	.
.	.	1cc	1ee
.	.	4b	4dd
.	.	4a	4cc
=7	=7	=7	=7
0r	0e	2g#	2b
.	.	1a	2a
.	.	.	1b
.	.	2g	.
=8	=8	=8	=8
0r	1A	2f	2cc
.	.	2e	1ee
.	[1d	1f	.
.	.	.	2dd
=9	=9	=9	=9
0A	2d]	1e	1ee
.	2c	.	.
.	2f	2.a	1r
.	[2e	.	.
.	.	4g	.
=10	=10	=10	=10
1D	4e]	1f	0r
.	4d	.	.
.	1d	.	.
[1A	.	[1e	.
.	4c	.	.
.	4B	.	.
=11	=11	=11	=11
2A]	2c	1e]	1r
2G	2B	.	.
2.c	4A	2r	[1ee
.	4B	.	.
.	4c	2g	.
4B	4d	.	.
=12	=12	=12	=12
2A	4e	2a	1ee]
.	4f	.	.
2G	2g	2b	.
1F	2c	2cc	1a
.	[2f	[2a	.
=13	=13	=13	=13
1B-	2f]	2a]	1.dd
.	4e	2g	.
.	4d	.	.
2.A	2f	1a	.
.	[2e	.	2cc
4G	.	.	.
=14	=14	=14	=14
2F	4e]	1r	1.ff
.	4d	.	.
2D	1d	.	.
1A	.	[1a	.
.	2c#	.	2ee
=15	=15	=15	=15
0r	2d	1a]	2dd
.	2.f	.	2cc
.	.	1d	[1ff
.	4e	.	.
.	[2d	.	.
=16	=16	=16	=16
0r	2d]	1.a	2ff]
.	2c	.	2ee
.	1B	.	1dd
.	.	2g	.
=17	=17	=17	=17
0A	1A	2.cc	2ee
.	.	.	4a
.	.	4b	4b
.	1r	2a	4cc
.	.	.	4dd
.	.	2g	[2ee
=18	=18	=18	=18
1D	1r	2.f	2ee]
.	.	.	2dd
.	.	8e	.
.	.	8d	.
[1A	[1e	2c	1ee
.	.	[2cc	.
=19	=19	=19	=19
2A]	1e]	2cc]	1r
2G	.	2b	.
2.c	1A	2a	[1ee
.	.	[2cc	.
4B	.	.	.
=20	=20	=20	=20
2A	1.e	2cc]	1ee]
2G	.	2b	.
1F	.	2cc	1a
.	2d	4b	.
.	.	4a	.
=21	=21	=21	=21
1E	2.g	2.b	2.ee
.	4f	4a	4ff
1r	2e	2g	4gg
.	.	.	4ee
.	2d	[2a	[2ff
=22	=22	=22	=22
0r	1c	4a]	4ff]
.	.	4g	4ee
.	.	2e	1ee
.	1d	1f	.
.	.	.	2dd
=23	=23	=23	=23
2r	1A	2e	0ee
2A	.	4a	.
.	.	4g	.
1A	2r	4a	.
.	.	4b	.
.	2e	[2cc	.
=24	=24	=24	=24
2A	1e	2cc]	0r
2G#	.	2b	.
2A	2e	2a	.
2B	2d	2g#	.
=25	=25	=25	=25
2c	2e	1a	2r
1d	1f	.	2a
.	.	1r	1a
4c	4e	.	.
4B	4d	.	.
=26	=26	=26	=26
2A	2f	0r	2a
1c	2e	.	2g
.	2c	.	2a
2B	2d	.	2b
=27	=27	=27	=27
2A	2.e	0r	2cc
4G	.	.	2.b
4F	8d	.	.
.	8c	.	.
2G	2B	.	.
.	.	.	4g
[2A	2A	.	[2cc
=28	=28	=28	=28
4A]	1c	1e	4cc]
4G#	.	.	4b
2A	.	.	1a
1E	1B	1e	.
.	.	.	2g#
=29	=29	=29	=29
1A	2A	2e	[0a
.	2e	2c	.
1r	2f	2d	.
.	2c	2e	.
=30	=30	=30	=30
2r	2d	2f	0a]
2A	1c	2.e	.
1A	.	.	.
.	.	4c	.
.	2A	[2f	.
=31	=31	=31	=31
2A	2.a	4f]	0r
.	.	4e	.
2F	.	1d	.
.	8g	.	.
.	8f	.	.
2G	1e	.	.
2A	.	2c#	.
=32	=32	=32	=32
2.B-	0d	2d	2r
.	.	2f	2dd
4A	.	.	.
2G	.	2g	1dd
2F	.	2a	.
=33	=33	=33	=33
2G	1r	2b-	2dd
2A	.	2a	2cc
2B-	2r	2d	2dd
2A	2c	[2a	2ee
=34	=34	=34	=34
2D	2d	4a]	2ff
.	.	4f	.
2A	2e	1cc	2.ee
2A	2A	.	.
.	.	.	4cc
2F	[2a	2cc	[2ff
=35	=35	=35	=35
1c	4a]	1cc	4ff]
.	4g	.	4ee
.	2e	.	1ee
1d	1f	1a	.
.	.	.	2dd
=36	=36	=36	=36
2.A	0e	2r	1ee
.	.	1a	.
4B	.	.	.
1c	.	.	2r
.	.	2g	[2ee
=37	=37	=37	=37
1d	1r	1f	2ee]
.	.	.	2dd
1A	2r	[1e	1cc
.	[2a	.	.
=38	=38	=38	=38
0r	2a]	1e]	1b
.	2g	.	.
.	[1f	2r	2.a
.	.	[2a	.
.	.	.	4b
=39	=39	=39	=39
0r	2f]	2a]	1cc
.	2e	2g	.
.	1d	1f	1dd
=40	=40	=40	=40
2r	1c	2.e	1ee
1A	.	.	.
.	.	4d	.
.	1e	2c	1r
2G	.	2B	.
=41	=41	=41	=41
1.F	2d	1A	2r
.	2.c	.	1a
.	.	1c	.
.	4B	.	.
2E	2G	.	2g
=42	=42	=42	=42
1D	2A	1d	1f
.	2B	.	.
2C	1c	2.e	2e
[2c	.	.	[2ee
.	.	4f	.
=43	=43	=43	=43
2c]	1G	1g	2ee]
2B	.	.	2dd
1A	2r	1c	1cc
.	[2e	.	.
=44	=44	=44	=44
1G#	2e]	1r	1b
.	2d	.	.
1A	1c	2r	4a
.	.	.	4b
.	.	[2a	4cc
.	.	.	4dd
=45	=45	=45	=45
1E	2.B	2a]	1ee
.	.	2g	.
.	4c	.	.
1r	4d	1f	[1a
.	4e	.	.
.	[2d	.	.
=46	=46	=46	=46
1.A	4d]	2e	1a]
.	4c	.	.
.	2c	2a	.
.	2A	2cc	1r
2G	2B	[2b	.
=47	=47	=47	=47
1F	2c	4b]	1r
.	.	4a	.
.	4B	1a	.
.	4A	.	.
1E	1B	.	2r
.	.	2g#	[2ee
=48	=48	=48	=48
1F	2A	2a	2ee]
.	1a	2d	2dd
1E	.	1e	2cc
.	2g	.	2b
=49	=49	=49	=49
1A	2f	1r	2.cc
.	2e	.	.
.	.	.	4b
1D	[1f	2r	4a
.	.	.	4g
.	.	[2a	4f
.	.	.	4g
=50	=50	=50	=50
2F	2f]	2a]	4a
.	.	.	4b
2C	2e	2g	2cc
1D	2.d	2f	2b
.	.	2f	[2a
.	4c	.	.
=51	=51	=51	=51
0E	0B	0e	2a]
.	.	.	4g
.	.	.	4f#
.	.	.	1g#
=52	=52	=52	=52
[0A	[0A	[0e	[0a
=53	=53	=53	=53
0A]	0A]	0e]	0a]
==	==	==	==
*-	*-	*-	*-
!!!CDT: 1525/^1526/-1594/2/2
!!!OCY: Italia
!!!AGN: Mass (Parody)
!!!AST: renaissance, vocal
!!!ASW: Motet 1539 (Jacquet)
!!!PWK: Masses, Book 3
!!!RNB: Cadence finals: D
!!!YOR: Le Opere Complete, v. 6, p. 1
!!!YOO: Rome, Italy: Fratelli Scalera
!!!END: 1992//
!!!EED: John Miller
!!!YEC: Copyright 2000, John Miller
!!!YEN: United States of America
!!!YEM: Rights to all derivative electronic formats reserved.
!!!YEM: Refer to licensing agreement for further details.
!!!YEM: This file must be accompanied by the licensing agreement.
!!!YEM: A copy of the licensing agreement may be found at http://www.music-cog.ohio-state.edu/HumdrumDatabases/Palestrina/license.txt
!!!EMD: converted to Humdrum by Bret Aarden
